assets/images/favicon.svg

<svg fill="none" height="40" viewBox="0 0 40 40" width="40" xmlns="http://www.w3.org/2000/svg"><path d="m20 40c11.0457 0 20-8.9543 20-20s-8.9543-20-20-20-20 8.9543-20 20 8.9543 20 20 20z" fill="#fff"/><path clip-rule="evenodd" d="m11.2311 8c-1.71175 0-2.97838 1.49826-2.92168 3.1231.05445 1.5609-.01629 3.5827-.52522 5.2314-.51076 1.6533-1.37397 2.701-2.7842 2.8355v1.5183c1.41023.1348 2.27344 1.1819 2.78414 2.8355.50899 1.6487.57967 3.6704.52522 5.2314-.0567 1.6246 1.20993 3.1231 2.92194 3.1231h17.5399c1.7118 0 2.9782-1.4983 2.9214-3.1231-.0544-1.561.0163-3.5827.5253-5.2314.5107-1.6536 1.3718-2.7012 2.7821-2.8355v-1.5183c-1.4102-.1348-2.2713-1.1819-2.7821-2.8355-.5091-1.6485-.5797-3.6705-.5253-5.2314.0568-1.62463-1.2096-3.1231-2.9214-3.1231zm14.1079 14.7109c0 2.2374-1.6688 3.5942-4.4382 3.5942h-4.7144c-.1348 0-.2641-.0536-.3595-.1489-.0954-.0954-.1489-.2247-.1489-.3596v-11.6949c0-.1348.0535-.2642.1489-.3595.0954-.0954.2247-.1489.3595-.1489h4.6875c2.3093 0 3.8248 1.2508 3.8248 3.1713 0 1.3479-1.0195 2.5547-2.3184 2.7661v.0703c1.7681.1939 2.9587 1.4185 2.9587 3.1099zm-4.9523-7.5058h-2.688v3.7969h2.264c1.7502 0 2.7152-.7048 2.7152-1.9645-.0002-1.1805-.8298-1.8324-2.2912-1.8324zm-2.688 5.3034v4.1842h2.7869c1.8223 0 2.7875-.7312 2.7875-2.1053s-.9923-2.0791-2.9047-2.0791z" fill="#3056d3" fill-rule="evenodd"/></svg>

<svg width="40" height="40" viewBox="0 0 40 40" fill="none" xmlns="http://www.w3.org/2000/svg">
<path d="M20 40C31.0457 40 40 31.0457 40 20C40 8.9543 31.0457 0 20 0C8.9543 0 0 8.9543 0 20C0 31.0457 8.9543 40 20 40Z" fill="white"/>
<path fill-rule="evenodd" clip-rule="evenodd" d="M11.2311 8C9.51935 8 8.25272 9.49826 8.30942 11.1231C8.36387 12.684 8.29313 14.7058 7.7842 16.3545C7.27344 18.0078 6.41023 19.0555 5 19.19V20.7083C6.41023 20.8431 7.27344 21.8902 7.78414 23.5438C8.29313 25.1925 8.36381 27.2142 8.30936 28.7752C8.25266 30.3998 9.51929 31.8983 11.2313 31.8983H28.7712C30.483 31.8983 31.7494 30.4 31.6926 28.7752C31.6382 27.2142 31.7089 25.1925 32.2179 23.5438C32.7286 21.8902 33.5897 20.8426 35 20.7083V19.19C33.5898 19.0552 32.7287 18.0081 32.2179 16.3545C31.7088 14.706 31.6382 12.684 31.6926 11.1231C31.7494 9.49847 30.483 8 28.7712 8H11.2311ZM25.339 22.7109C25.339 24.9483 23.6702 26.3051 20.9008 26.3051H16.1864C16.0516 26.3051 15.9223 26.2515 15.8269 26.1562C15.7315 26.0608 15.678 25.9315 15.678 25.7966V14.1017C15.678 13.9669 15.7315 13.8375 15.8269 13.7422C15.9223 13.6468 16.0516 13.5933 16.1864 13.5933H20.8739C23.1832 13.5933 24.6987 14.8441 24.6987 16.7646C24.6987 18.1125 23.6792 19.3193 22.3803 19.5307V19.601C24.1484 19.7949 25.339 21.0195 25.339 22.7109ZM20.3867 15.2051H17.6987V19.002H19.9627C21.7129 19.002 22.6779 18.2972 22.6779 17.0375C22.6777 15.857 21.8481 15.2051 20.3867 15.2051ZM17.6987 20.5085V24.6927H20.4856C22.3079 24.6927 23.2731 23.9615 23.2731 22.5874C23.2731 21.2133 22.2808 20.5083 20.3684 20.5083L17.6987 20.5085Z" fill="#3056D3"/>
</svg>
